docs/local/img/sprites/vk.svg

<svg width="26" height="15" viewBox="0 0 26 15" xmlns="http://www.w3.org/2000/svg">
<path d="M25.5576 13.2531C25.5269 13.1881 25.4982 13.1341 25.4716 13.0909C25.0312 12.3124 24.1895 11.3568 22.9472 10.2238L22.921 10.1979L22.9078 10.1851L22.8945 10.1721H22.8812C22.3174 9.64453 21.9603 9.28981 21.8108 9.1082C21.5372 8.76224 21.4759 8.41206 21.6254 8.05725C21.7311 7.78918 22.1279 7.22304 22.8149 6.35806C23.1763 5.89966 23.4626 5.53226 23.6739 5.25546C25.1984 3.26625 25.8593 1.99512 25.6565 1.44157L25.5778 1.31221C25.5249 1.23433 25.3883 1.16309 25.1683 1.09811C24.9478 1.03328 24.6659 1.02255 24.3222 1.06576L20.5159 1.09157C20.4542 1.07012 20.3661 1.07212 20.2514 1.09811C20.1369 1.1241 20.0796 1.13714 20.0796 1.13714L20.0133 1.16963L19.9607 1.20866C19.9167 1.23447 19.8682 1.27986 19.8153 1.34474C19.7626 1.4094 19.7186 1.48528 19.6834 1.57174C19.269 2.61819 18.7979 3.59112 18.2691 4.49049C17.943 5.02678 17.6436 5.49155 17.3702 5.88507C17.0971 6.27846 16.868 6.5683 16.6831 6.75409C16.4979 6.94006 16.3308 7.08905 16.1808 7.20159C16.0309 7.31418 15.9165 7.36176 15.8373 7.34435C15.7579 7.32695 15.6832 7.30968 15.6124 7.29242C15.4891 7.21454 15.3899 7.10863 15.3152 6.97459C15.2401 6.84055 15.1896 6.67185 15.1631 6.46861C15.1368 6.26524 15.1213 6.09031 15.1168 5.94323C15.1127 5.79633 15.1146 5.58855 15.1235 5.32048C15.1327 5.05227 15.1368 4.87079 15.1368 4.77565C15.1368 4.44696 15.1434 4.09024 15.1565 3.70539C15.1698 3.32055 15.1806 3.01562 15.1896 2.79098C15.1986 2.56612 15.2027 2.32821 15.2027 2.07741C15.2027 1.8266 15.1872 1.6299 15.1565 1.48714C15.1261 1.34456 15.0795 1.20616 15.018 1.07199C14.9562 0.93795 14.8658 0.834264 14.7471 0.760657C14.6282 0.687141 14.4803 0.6288 14.3044 0.585454C13.8373 0.481723 13.2426 0.425609 12.5199 0.416885C10.8812 0.399619 9.82816 0.503487 9.36116 0.728352C9.17614 0.823359 9.0087 0.953171 8.85899 1.11738C8.70035 1.30771 8.67822 1.41158 8.79275 1.42866C9.32149 1.50641 9.69581 1.69238 9.91611 1.9864L9.9955 2.1422C10.0573 2.25461 10.1189 2.45362 10.1806 2.73896C10.2422 3.0243 10.282 3.33995 10.2995 3.68572C10.3435 4.31715 10.3435 4.85766 10.2995 5.3073C10.2554 5.75712 10.2137 6.1073 10.174 6.35811C10.1342 6.60892 10.0748 6.81216 9.9955 6.96778C9.91611 7.12344 9.86329 7.21859 9.83681 7.25312C9.81038 7.28765 9.78835 7.30941 9.77085 7.31796C9.65632 7.36103 9.53721 7.38297 9.41394 7.38297C9.29048 7.38297 9.14077 7.32236 8.96458 7.20123C8.78844 7.0801 8.60563 6.91371 8.41616 6.70179C8.22669 6.48983 8.013 6.19363 7.77502 5.81315C7.53722 5.43266 7.29048 4.98298 7.03495 4.46409L6.82353 4.08779C6.69137 3.8457 6.51083 3.49321 6.28173 3.03062C6.05249 2.56785 5.84987 2.12021 5.67373 1.68779C5.60332 1.50618 5.49755 1.36792 5.35659 1.27277L5.29044 1.23374C5.24646 1.19921 5.17586 1.16254 5.07902 1.12347C4.98204 1.08444 4.88084 1.05645 4.77502 1.03923L1.15365 1.06504C0.783591 1.06504 0.532503 1.14732 0.400294 1.31166L0.347382 1.38941C0.320949 1.43271 0.307617 1.50186 0.307617 1.59705C0.307617 1.6922 0.33405 1.80897 0.386962 1.94723C0.915616 3.16674 1.49052 4.34287 2.11166 5.47578C2.73281 6.60869 3.27257 7.52128 3.73063 8.21273C4.18878 8.90469 4.65577 9.55774 5.13161 10.1716C5.60744 10.7857 5.92241 11.1792 6.07652 11.3521C6.23081 11.5253 6.352 11.6548 6.4401 11.7412L6.77057 12.0525C6.98204 12.2601 7.29256 12.5088 7.70229 12.7984C8.11211 13.0882 8.56582 13.3736 9.06365 13.6549C9.56156 13.9357 10.1408 14.1649 10.8017 14.3422C11.4625 14.5196 12.1057 14.5908 12.7314 14.5564H14.2513C14.5596 14.5303 14.7931 14.4352 14.9518 14.271L15.0044 14.2059C15.0398 14.1543 15.0729 14.0741 15.1034 13.9662C15.1344 13.8581 15.1497 13.739 15.1497 13.6095C15.1407 13.2377 15.1696 12.9026 15.2355 12.6043C15.3013 12.306 15.3764 12.0811 15.4604 11.9297C15.5443 11.7784 15.639 11.6507 15.7445 11.5472C15.8501 11.4435 15.9254 11.3807 15.9695 11.359C16.0134 11.3373 16.0485 11.3225 16.0749 11.3136C16.2863 11.2445 16.5352 11.3115 16.8219 11.5149C17.1083 11.7181 17.3769 11.9691 17.6282 12.2673C17.8793 12.5658 18.181 12.9007 18.5334 13.2725C18.886 13.6445 19.1943 13.921 19.4585 14.1028L19.7228 14.2585C19.8992 14.3624 20.1283 14.4575 20.4104 14.544C20.6919 14.6304 20.9385 14.652 21.1503 14.6088L24.5336 14.557C24.8683 14.557 25.1287 14.5026 25.3134 14.3947C25.4984 14.2866 25.6084 14.1675 25.6438 14.038C25.6792 13.9083 25.6811 13.7612 25.6506 13.5967C25.6192 13.4327 25.5883 13.3179 25.5576 13.2531Z"/>
</svg>

<svg width="26" height="15" viewBox="0 0 26 15" xmlns="http://www.w3.org/2000/svg"><path d="M25.558 13.253a1.693 1.693 0 00-.086-.162c-.44-.779-1.283-1.734-2.525-2.867l-.026-.026-.013-.013-.014-.013h-.013c-.564-.527-.92-.882-1.07-1.064-.274-.346-.335-.696-.186-1.05.106-.269.503-.835 1.19-1.7.361-.458.648-.826.859-1.103 1.524-1.989 2.185-3.26 1.983-3.813l-.08-.13c-.052-.078-.189-.149-.409-.214-.22-.065-.502-.075-.846-.032l-3.806.026a.503.503 0 00-.265.006l-.171.04-.067.032-.052.039a.584.584 0 00-.146.136.885.885 0 00-.132.227A21.01 21.01 0 0118.27 4.49a27.643 27.643 0 01-.899 1.395c-.273.393-.502.683-.687.87a4.775 4.775 0 01-.502.447c-.15.112-.265.16-.344.142a9.868 9.868 0 01-.225-.052.868.868 0 01-.297-.317 1.405 1.405 0 01-.152-.506 5.493 5.493 0 01-.046-.526 10.82 10.82 0 01.006-.623c.01-.268.014-.45.014-.544 0-.329.006-.686.02-1.07l.033-.915c.009-.225.013-.463.013-.714 0-.25-.016-.447-.046-.59a1.991 1.991 0 00-.139-.415.703.703 0 00-.27-.311 1.544 1.544 0 00-.444-.176c-.467-.103-1.061-.16-1.784-.168C10.88.4 9.828.503 9.36.728a1.776 1.776 0 00-.502.39c-.159.19-.18.294-.066.31.528.078.903.264 1.123.558l.08.156c.061.113.123.312.185.597.061.285.101.601.119.947a9.907 9.907 0 010 1.621c-.045.45-.086.8-.126 1.051-.04.25-.1.454-.178.61a2.59 2.59 0 01-.16.285.226.226 0 01-.065.065 1.007 1.007 0 01-.357.065c-.124 0-.273-.06-.45-.182a3.149 3.149 0 01-.548-.5 6.68 6.68 0 01-.641-.888 15.14 15.14 0 01-.74-1.349l-.211-.376a32.143 32.143 0 01-.542-1.057c-.23-.463-.432-.91-.608-1.343a.857.857 0 00-.317-.415l-.067-.04a.91.91 0 00-.211-.11 1.423 1.423 0 00-.304-.084l-3.621.026c-.37 0-.621.082-.754.247l-.053.077a.413.413 0 00-.04.208c0 .095.027.212.08.35a42.472 42.472 0 001.725 3.529c.62 1.133 1.16 2.045 1.619 2.737a32.32 32.32 0 001.4 1.959c.476.614.791 1.007.946 1.18.154.173.275.303.363.39l.33.31c.212.208.523.457.932.746.41.29.864.576 1.362.857a7.47 7.47 0 001.738.687 6.08 6.08 0 001.93.214h1.52c.308-.026.541-.12.7-.285l.052-.065a.849.849 0 00.1-.24c.03-.108.046-.227.046-.356a4.2 4.2 0 01.085-1.006c.066-.298.141-.523.225-.674a1.651 1.651 0 01.51-.571.892.892 0 01.105-.045c.211-.07.46-.002.747.2.286.204.555.455.806.753.251.299.553.634.905 1.006.353.372.661.648.925.83l.265.155c.176.104.405.2.687.286.282.086.529.108.74.065l3.384-.052c.334 0 .595-.054.78-.162.184-.108.294-.227.33-.357a.987.987 0 00.007-.441 1.61 1.61 0 00-.093-.344z"/></svg>
